src/common/icons/icon.svg

<svg enable-background="new 0 0 100 100" viewBox="0 0 100 125" xmlns="http://www.w3.org/2000/svg"><path d="m76.844 50.149c0-10.038 8.156-18.178 18.156-18.204v-11.51c0-4.003-3.095-7.435-7.098-7.435h-75.581c-.55 0-1.085.176-1.601.291-.092 3.005-2.532 5.479-5.539 5.565-.106.49-.181 1.055-.181 1.579v5.65c4 0 5.689 2.546 5.689 5.689 0 3.141-1.689 5.689-5.689 5.689v7.168c4 0 5.689 2.546 5.689 5.689 0 3.141-1.689 5.689-5.689 5.689v7.168c4 0 5.689 2.546 5.689 5.689 0 3.141-1.689 5.689-5.689 5.689v5.342c0 .632.1 1.246.254 1.832 2.895.118 5.24 2.307 5.446 5.18.519.118 1.067.091 1.621.091h75.581c4.003 0 7.098-3.101 7.098-7.104v-11.543c-10-.027-18.156-8.166-18.156-18.204zm-17.233-4.999-15.396 16.534c-.921.921-2.129 1.382-3.337 1.382-1.19 0-2.379-.448-3.295-1.342-.014-.014-.028-.026-.042-.04l-6.355-6.355c-1.843-1.843-1.843-4.831 0-6.674s4.831-1.843 6.674 0l3.018 3.018 13.197-12.059c1.843-1.843 4.831-2.981 6.674-1.138s.705 4.831-1.138 6.674z" fill="#0c0c0d" fill-opacity=".8"/></svg>

<?xml version="1.0" encoding="UTF-8" standalone="no"?>
<svg
   xmlns:dc="http://purl.org/dc/elements/1.1/"
   xmlns:cc="http://creativecommons.org/ns#"
   xmlns:rdf="http://www.w3.org/1999/02/22-rdf-syntax-ns#"
   xmlns:svg="http://www.w3.org/2000/svg"
   xmlns="http://www.w3.org/2000/svg"
   xmlns:sodipodi="http://sodipodi.sourceforge.net/DTD/sodipodi-0.dtd"
   xmlns:inkscape="http://www.inkscape.org/namespaces/inkscape"
   inkscape:version="1.0beta2 (2b71d25, 2019-12-03)"
   sodipodi:docname="icon.svg"
   id="svg835"
   xml:space="preserve"
   enable-background="new 0 0 100 100"
   viewBox="0 0 100 125"
   y="0px"
   x="0px"
   version="1.1"><metadata
     id="metadata841"><rdf:RDF><cc:Work
         rdf:about=""><dc:format>image/svg+xml</dc:format><dc:type
           rdf:resource="http://purl.org/dc/dcmitype/StillImage" /></cc:Work></rdf:RDF></metadata><defs
     id="defs839" /><sodipodi:namedview
     inkscape:current-layer="svg835"
     inkscape:window-maximized="0"
     inkscape:window-y="23"
     inkscape:window-x="0"
     inkscape:cy="62.5"
     inkscape:cx="50"
     inkscape:zoom="5.376"
     showgrid="false"
     id="namedview837"
     inkscape:window-height="1005"
     inkscape:window-width="1680"
     inkscape:pageshadow="2"
     inkscape:pageopacity="0"
     guidetolerance="10"
     gridtolerance="10"
     objecttolerance="10"
     borderopacity="1"
     inkscape:document-rotation="0"
     bordercolor="#666666"
     pagecolor="#ffffff" /><path
     style="fill:#0c0c0d;fill-opacity:0.80000001"
     id="path833"
     d="M76.844,50.149C76.844,40.111,85,31.971,95,31.945v-11.51C95,16.432,91.905,13,87.902,13H12.321  c-0.55,0-1.085,0.176-1.601,0.291c-0.092,3.005-2.532,5.479-5.539,5.565C5.075,19.346,5,19.911,5,20.435v5.65  c4,0,5.689,2.546,5.689,5.689c0,3.141-1.689,5.689-5.689,5.689v7.168c4,0,5.689,2.546,5.689,5.689c0,3.141-1.689,5.689-5.689,5.689  v7.168c4,0,5.689,2.546,5.689,5.689c0,3.141-1.689,5.689-5.689,5.689v5.342c0,0.632,0.1,1.246,0.254,1.832  c2.895,0.118,5.24,2.307,5.446,5.18C11.219,87.027,11.767,87,12.321,87h75.581C91.905,87,95,83.899,95,79.896V68.353  C85,68.326,76.844,60.187,76.844,50.149z M59.611,45.15L44.215,61.684c-0.921,0.921-2.129,1.382-3.337,1.382  c-1.19,0-2.379-0.448-3.295-1.342c-0.014-0.014-0.028-0.026-0.042-0.04l-6.355-6.355c-1.843-1.843-1.843-4.831,0-6.674  c1.843-1.843,4.831-1.843,6.674,0l3.018,3.018l13.197-12.059c1.843-1.843,4.831-2.981,6.674-1.138  C62.592,40.319,61.454,43.307,59.611,45.15z" /></svg>
